public/images/farms/sxp-bnb.svg

<svg width="186" height="179" viewBox="0 0 186 179" fill="none" xmlns="http://www.w3.org/2000/svg">
<path d="M67.0451 119.028C63.8668 131.172 82.0451 146.449 107.647 153.149C133.25 159.849 156.581 155.436 159.759 143.291C162.938 131.146 144.759 115.87 119.157 109.169C93.5547 102.469 70.2234 106.883 67.0451 119.028Z" fill="#606063"/>
<path d="M155.924 149.273L171.346 132.988L61.9921 104.369L67.7127 126.187L155.924 149.273Z" fill="#606063"/>
<path d="M68.9337 108.293L27.0725 97.338C25.258 96.8632 23.4126 97.9924 23.0096 99.8242L22.5414 101.953C21.6084 106.194 24.1195 110.433 28.2875 111.653L70.0994 123.892L68.9337 108.293Z" fill="#606063"/>
<path d="M62.2026 98.7096C58.5089 112.824 80.5267 130.811 111.381 138.886C142.235 146.96 170.241 142.064 173.935 127.95C177.629 113.836 155.611 95.8488 124.757 87.7742C93.9028 79.6996 65.8963 84.5955 62.2026 98.7096Z" fill="url(#paint0_linear)"/>
<path fill-rule="evenodd" clip-rule="evenodd" d="M146.673 123.286C153.771 128.506 157.919 134.152 158.538 139.157L161.515 138.789C160.744 132.551 155.779 126.258 148.45 120.869C141.06 115.434 131.011 110.721 119.537 107.718C108.063 104.716 96.9926 103.901 87.8879 105.019C78.8592 106.128 71.4478 109.182 67.7195 114.242L70.1347 116.021C73.1262 111.961 79.5081 109.071 88.2535 107.997C96.923 106.933 107.608 107.698 118.777 110.621C129.946 113.544 139.636 118.111 146.673 123.286Z" fill="#606063"/>
<path fill-rule="evenodd" clip-rule="evenodd" d="M75.7343 118.739C67.0136 111.615 63.7365 104.698 65.1049 99.4692C66.4733 94.2403 72.7186 89.8155 83.8112 87.8763C94.6178 85.9872 108.889 86.7226 123.997 90.6764C139.105 94.6302 151.908 100.98 160.403 107.921C169.124 115.045 172.401 121.962 171.033 127.191C169.664 132.42 163.419 136.844 152.326 138.784C141.52 140.673 127.248 139.937 112.14 135.984C97.0323 132.03 84.2301 125.68 75.7343 118.739ZM111.381 138.886C80.5267 130.811 58.5089 112.824 62.2026 98.7096C65.8963 84.5955 93.9028 79.6996 124.757 87.7742C155.611 95.8488 177.629 113.836 173.935 127.95C170.241 142.064 142.235 146.96 111.381 138.886Z" fill="#979797"/>
<path fill-rule="evenodd" clip-rule="evenodd" d="M64.1673 124.049L59.2305 104.926L62.1352 104.176L67.0721 123.299L64.1673 124.049Z" fill="url(#paint1_linear)"/>
<path fill-rule="evenodd" clip-rule="evenodd" d="M62.4691 106.189C62.4241 106.041 62.3812 105.893 62.3406 105.746C62.2656 105.473 62.1983 105.2 62.1386 104.929L61.997 104.389C61.9948 104.38 62.0025 104.372 62.0109 104.375C62.019 104.377 62.0266 104.37 62.0251 104.362C62.0236 104.353 62.0222 104.345 62.0207 104.337C61.9732 104.072 61.9333 103.807 61.9009 103.543C61.8931 103.479 61.8857 103.416 61.8788 103.352C61.8065 102.689 61.7824 102.031 61.8078 101.378C61.8079 101.378 61.8079 101.378 61.8079 101.377C61.8432 100.475 61.9734 99.5849 62.2025 98.7095C65.8962 84.5954 93.9027 79.6994 124.757 87.774C155.611 95.8486 177.629 113.836 173.935 127.95C173.706 128.826 173.383 129.666 172.972 130.469C172.972 130.469 172.972 130.47 172.972 130.47C172.528 131.338 171.981 132.163 171.337 132.945C171.332 132.951 171.326 132.958 171.321 132.964C171.319 132.967 171.318 132.969 171.318 132.972C171.318 132.977 171.322 132.982 171.327 132.983C171.332 132.984 171.335 132.989 171.336 132.993C171.336 132.996 171.335 133 171.333 133.002L170.725 133.644C170.655 133.72 170.584 133.795 170.511 133.87L169.275 135.175L169.273 135.177L157.793 147.299C150.986 156.33 130.197 159.051 107.647 153.149C85.3446 147.312 68.6757 134.967 66.8505 123.854C66.7571 123.285 66.3667 122.8 65.8135 122.639L29.1271 111.91C24.9834 110.698 22.4722 106.499 23.3648 102.275L23.8239 100.103C24.2137 98.2581 26.0655 97.1133 27.8898 97.589L62.1386 106.52C62.3391 106.573 62.5217 106.39 62.4691 106.189ZM58.8119 102.553C58.7482 101.009 58.9029 99.4681 59.3002 97.9499C61.6255 89.0648 71.2303 83.9845 82.7779 81.9658C94.6114 79.8971 109.77 80.751 125.516 84.8718C141.262 88.9926 154.896 95.6738 164.199 103.274C173.277 110.691 179.162 119.825 176.837 128.71C176.28 130.839 175.285 132.774 173.936 134.499C173.821 134.697 173.679 134.887 173.511 135.065L172.923 135.686C172.92 135.689 172.916 135.693 172.913 135.697C172.836 135.779 172.759 135.861 172.68 135.943C172.677 135.946 172.673 135.95 172.67 135.953L160.082 149.246C155.911 154.652 148.056 157.706 138.984 158.802C129.684 159.926 118.467 159.082 106.888 156.051C95.4351 153.054 85.3397 148.366 77.8095 142.91C70.73 137.78 65.4882 131.648 64.0667 125.253L28.285 114.789C22.6362 113.137 19.2128 107.413 20.4296 101.655L20.8887 99.4823C21.6325 95.9628 25.166 93.7783 28.6468 94.6861L58.8119 102.553Z" fill="url(#paint2_linear)"/>
<circle cx="76" cy="29" r="29" fill="#F0B90B"/>
<path d="M65.1846 28.9998L60.7476 33.4676L56.2798 28.9998L60.7476 24.532L65.1846 28.9998ZM75.9998 18.1846L83.6413 25.8261L88.1091 21.3583L80.4676 13.7476L75.9998 9.27979L71.532 13.7476L63.9213 21.3583L68.3891 25.8261L75.9998 18.1846ZM91.252 24.532L86.815 28.9998L91.2828 33.4676L95.7198 28.9998L91.252 24.532ZM75.9998 39.815L68.3583 32.1735L63.9213 36.6413L71.5628 44.2828L75.9998 48.7198L80.4676 44.252L88.1091 36.6105L83.6413 32.1735L75.9998 39.815ZM75.9998 33.4676L80.4676 28.9998L75.9998 24.532L71.532 28.9998L75.9998 33.4676Z" fill="#FFFDFA"/>
<g style="mix-blend-mode:multiply" opacity="0.1">
<circle cx="76" cy="29" r="27.5" stroke="#191326" stroke-width="3"/>
</g>
<path d="M125.5 116C149.524 116 169 96.5244 169 72.5C169 48.4756 149.524 29 125.5 29C101.476 29 82 48.4756 82 72.5C82 96.5244 101.476 116 125.5 116Z" fill="url(#paint3_linear)"/>
<path fill-rule="evenodd" clip-rule="evenodd" d="M95.6027 73.7868C95.648 70.1709 96.5633 67.4883 98.5389 65.1502C98.9739 64.6246 99.4995 64.1444 99.9799 63.655C100.814 62.7759 101.647 61.9423 102.472 61.0542C103.569 59.9576 104.665 58.8972 105.762 57.8007C106.46 57.0938 107.157 56.3868 107.864 55.6799C108.607 54.9368 109.396 54.1847 110.139 53.4325C110.882 52.7347 111.58 52.0279 112.287 51.2757C113.682 49.871 115.087 48.4571 116.483 47.0524C118.458 45.1131 120.824 43.9621 123.579 43.6177C125.989 43.3096 128.309 43.6178 130.493 44.6237C131.418 45.0678 132.242 45.6841 133.031 46.255C133.556 46.6538 133.52 46.7443 133.121 47.2699C133.031 47.4059 132.904 47.4875 132.813 47.6235C131.11 49.3363 129.361 51.1035 127.648 52.8163C126.859 53.6138 126.071 54.366 125.282 55.1091C124.367 56.0335 123.488 56.9126 122.618 57.846C121.956 58.4985 121.259 59.16 120.597 59.8216C119.51 60.9272 118.504 62.069 117.407 63.1747C116.573 64.0084 115.74 64.7968 114.906 65.6396C114.036 66.564 113.157 67.4884 112.241 68.4128C111.453 69.2466 110.619 70.044 109.831 70.8324C109.042 71.7205 108.254 72.5997 107.42 73.4335C107.031 73.8322 106.632 74.1857 106.287 74.5753C105.499 75.4182 104.71 76.2519 103.922 77.0947C103.179 77.8832 102.391 78.6805 101.647 79.4237C101.122 79.9493 100.596 80.5293 100.07 81.0549C99.9798 81.1456 99.8893 81.2272 99.8077 81.3178C99.2821 81.7619 98.974 81.762 98.5752 81.191C97.968 80.3935 97.3517 79.5597 96.9167 78.6353C96.083 76.9588 95.5121 75.1552 95.6027 73.7868ZM155.279 74.974C154.926 78.0553 153.566 80.176 153.213 80.747C152.823 81.3179 152.298 81.934 151.201 83.1212C150.331 84.0909 149.407 85.0154 148.491 85.9398C147.567 86.8279 146.652 87.7069 145.727 88.6313C144.903 89.4197 144.114 90.2625 143.326 91.0509C142.447 91.93 141.568 92.818 140.698 93.6971C139.773 94.6215 138.813 95.5913 137.897 96.5156C136.629 97.7934 135.396 99.1165 134.046 100.304C132.206 101.935 130.058 102.95 127.602 103.213C125.155 103.476 122.745 103.258 120.516 102.198C119.591 101.754 118.766 101.137 117.933 100.567C117.452 100.213 117.452 99.9504 117.842 99.5063C118.504 98.8085 119.247 98.1015 119.945 97.3947C120.334 96.9959 120.733 96.561 121.168 96.1623C122.047 95.3285 122.917 94.4494 123.796 93.6066C123.887 93.516 123.968 93.4797 124.014 93.3891C124.847 92.5554 125.636 91.7125 126.47 90.8788C127.258 90.0813 128.046 89.3381 128.79 88.5859C129.134 88.2325 129.487 87.8791 129.841 87.5257C130.013 87.3535 130.149 87.1813 130.321 87C131.372 85.9397 132.424 84.8884 133.475 83.8281C134.309 83.0397 135.133 82.2423 135.922 81.4085C137.064 80.2576 138.242 79.161 139.338 77.9738C140.299 76.9588 140.779 75.6809 140.961 74.3125C141.178 72.6813 140.698 71.186 139.819 69.8266C139.338 69.0744 138.722 68.9838 138.07 69.6454C136.583 71.1045 135.088 72.5543 133.602 74.0043C132.025 75.5449 130.448 77.0947 128.835 78.6353C127.693 79.7772 126.515 80.8828 125.328 81.9793C123.932 83.3478 122.527 84.7526 121.123 86.1663C120.425 86.8732 119.682 87.5257 118.984 88.2326C117.978 89.2023 116.963 90.172 115.957 91.187C115.395 91.7126 114.688 92.0207 113.991 92.2472C112.985 92.5554 111.979 92.5099 110.973 92.3286C109.921 92.1565 109.042 91.6219 108.254 90.8788C107.03 89.6463 105.807 88.4137 104.529 87.1812C104.013 86.6465 104.049 86.6013 104.529 86.121C107.121 83.5653 109.659 81.0097 112.241 78.4088C114.163 76.4694 116.138 74.5392 118.06 72.5998C119.111 71.5395 120.162 70.479 121.213 69.473C122.092 68.5849 122.962 67.7966 123.841 66.9176C124.675 66.0748 125.464 65.241 126.288 64.4073C127.077 63.6098 127.865 62.8212 128.699 62.0237C129.66 61.054 130.629 60.0844 131.59 59.16C132.505 58.2357 133.475 57.3566 134.39 56.4322C134.481 56.3416 134.562 56.26 134.653 56.1694C135.704 54.8915 137.109 54.3659 138.722 54.3206C140.562 54.2299 142.057 54.8916 143.326 56.2147C145.818 58.7703 148.356 61.3168 150.893 63.8362C152.606 65.549 152.914 65.9024 153.476 66.7815C155.016 69.1196 155.316 71.2766 155.406 71.8475C155.279 72.2463 155.451 73.4334 155.279 74.974Z" fill="white"/>
<g style="mix-blend-mode:multiply" opacity="0.2">
<circle cx="125.5" cy="72.5" r="42.0815" stroke="#191326" stroke-width="2.83696"/>
</g>
<defs>
<linearGradient id="paint0_linear" x1="124.757" y1="87.7742" x2="111.381" y2="138.886" gradientUnits="userSpaceOnUse">
<stop stop-color="#404042"/>
<stop offset="1" stop-color="#48484B"/>
</linearGradient>
<linearGradient id="paint1_linear" x1="65.5673" y1="105.096" x2="60.7353" y2="123.129" gradientUnits="userSpaceOnUse">
<stop stop-color="#404042"/>
<stop offset="1" stop-color="#48484B"/>
</linearGradient>
<linearGradient id="paint2_linear" x1="92.4948" y1="80.1687" x2="108.09" y2="164.62" gradientUnits="userSpaceOnUse">
<stop stop-color="#404042"/>
<stop offset="1" stop-color="#48484B"/>
</linearGradient>
<linearGradient id="paint3_linear" x1="82" y1="29" x2="169" y2="116" gradientUnits="userSpaceOnUse">
<stop offset="0.244792" stop-color="#F16154"/>
<stop offset="0.692708" stop-color="#ED8533"/>
</linearGradient>
</defs>
</svg>

<svg xmlns="http://www.w3.org/2000/svg" width="186" height="179" fill="none"  xmlns:v="https://vecta.io/nano"><g fill="#606063"><path d="M67.045 119.028c-3.178 12.144 15 27.421 40.602 34.121s48.934 2.287 52.112-9.858-15-27.421-40.602-34.122-48.934-2.286-52.112 9.859z"/><path d="M155.924 149.273l15.422-16.285-109.354-28.619 5.721 21.818 88.211 23.086z"/><path d="M68.934 108.293L27.073 97.338c-1.815-.475-3.66.654-4.063 2.486l-.468 2.129a8.26 8.26 0 0 0 5.746 9.7l41.812 12.239-1.166-15.599z"/></g><path d="M62.203 98.71c-3.694 14.114 18.324 32.101 49.178 40.176s58.86 3.178 62.554-10.936-18.324-32.101-49.178-40.176-58.861-3.179-62.554 10.935z" fill="url(#A)"/><g fill-rule="evenodd"><path d="M146.673 123.286c7.098 5.22 11.246 10.866 11.865 15.871l2.977-.368c-.771-6.238-5.736-12.531-13.065-17.92-7.39-5.435-17.439-10.148-28.913-13.151s-22.544-3.817-31.649-2.699c-9.029 1.109-16.44 4.163-20.168 9.223l2.415 1.779c2.992-4.06 9.373-6.95 18.119-8.024 8.67-1.064 19.355-.299 30.524 2.624s20.859 7.49 27.896 12.665z" fill="#606063"/><path d="M75.734 118.739c-8.721-7.124-11.998-14.041-10.629-19.27s7.614-9.654 18.706-11.593c10.807-1.889 25.078-1.154 40.186 2.8s27.911 10.304 36.406 17.245c8.721 7.124 11.998 14.041 10.63 19.27s-7.614 9.653-18.707 11.593c-10.806 1.889-25.078 1.153-40.186-2.8s-27.91-10.304-36.406-17.245zm35.647 20.147c-30.854-8.075-52.872-26.062-49.178-40.176s31.7-19.01 62.554-10.935 52.872 26.062 49.178 40.176-31.7 19.01-62.554 10.936z" fill="#979797"/><path d="M64.167 124.049l-4.937-19.123 2.905-.75 4.937 19.123-2.905.75z" fill="url(#B)"/><path d="M62.469 106.189l-.128-.443-.202-.817-.142-.54c.022-.012.03-.019.028-.027l-.004-.025-.12-.794-.022-.191c-.072-.663-.096-1.321-.071-1.974.035-.903.166-1.793.395-2.668 3.694-14.114 31.7-19.01 62.555-10.936s52.872 26.062 49.178 40.176a12.4 12.4 0 0 1-.963 2.519 13.7 13.7 0 0 1-1.635 2.476l-.016.019c.011.02.014.025.015.029l-.611.651-12.932 13.655c-6.807 9.031-27.596 11.752-50.146 5.85-22.302-5.837-38.971-18.182-40.797-29.295-.093-.569-.484-1.054-1.037-1.215L29.127 111.91a8.26 8.26 0 0 1-5.762-9.635l.459-2.172c.39-1.845 2.242-2.99 4.066-2.514l34.249 8.931a.27.27 0 0 0 .331-.331zm-3.657-3.636c-.064-1.544.091-3.085.488-4.603 2.325-8.885 11.93-13.965 23.478-15.984 11.834-2.069 26.992-1.215 42.738 2.906s29.38 10.802 38.683 18.402c9.078 7.417 14.963 16.551 12.638 25.436-.557 2.129-1.552 4.064-2.901 5.789a3.08 3.08 0 0 1-.425.566l-13.429 14.181c-4.171 5.406-12.026 8.46-21.098 9.556-9.3 1.124-20.517.28-32.096-2.751-11.453-2.997-21.548-7.685-29.079-13.141-7.079-5.13-12.321-11.262-13.743-17.657l-35.782-10.464a11.26 11.26 0 0 1-7.855-13.134l.459-2.173c.744-3.519 4.277-5.704 7.758-4.796l30.165 7.867z" fill="url(#C)"/></g><circle cx="76" cy="29" r="29" fill="#f0b90b"/><path d="M65.185 29l-4.437 4.468L56.28 29l4.468-4.468L65.185 29zM76 18.185l7.642 7.642 4.468-4.468-7.641-7.611L76 9.28 63.921 21.358l4.468 4.468L76 18.185zm15.252 6.347L86.815 29l4.468 4.468L95.72 29l-4.468-4.468zM76 39.815l-7.641-7.642-4.437 4.468L76 48.72l12.109-12.109-4.468-4.437L76 39.815zm0-6.347L80.468 29 76 24.532 71.532 29 76 33.468z" fill="#fffdfa"/><circle cx="76" cy="29" r="27.5" stroke="#191326" stroke-width="3" style="mix-blend-mode:multiply" opacity=".1"/><path d="M125.5 116c24.024 0 43.5-19.476 43.5-43.5S149.524 29 125.5 29 82 48.476 82 72.5s19.476 43.5 43.5 43.5z" fill="url(#D)"/><path fill-rule="evenodd" d="M95.603 73.787c.045-3.616.961-6.299 2.936-8.637.435-.526.961-1.006 1.441-1.495l2.492-2.601 3.29-3.254 2.102-2.121 2.275-2.247 2.148-2.157 4.196-4.223a12 12 0 0 1 7.096-3.435c2.41-.308 4.73 0 6.914 1.006.925.444 1.749 1.06 2.538 1.631.525.399.489.489.09 1.015-.09.136-.217.218-.308.354l-5.165 5.193-2.366 2.293-2.664 2.737-2.021 1.976-3.19 3.353-2.501 2.465-2.665 2.773-2.41 2.42-2.411 2.601-1.133 1.142-2.365 2.519-2.275 2.329-1.577 1.631-.262.263c-.526.444-.834.444-1.233-.127-.607-.797-1.224-1.631-1.658-2.556-.834-1.677-1.405-3.48-1.314-4.849zm59.676 1.187c-.353 3.081-1.713 5.202-2.066 5.773-.39.571-.915 1.187-2.012 2.374l-2.71 2.819-2.764 2.691-2.401 2.42-5.429 5.465-3.851 3.788c-1.84 1.631-3.988 2.646-6.444 2.909-2.447.263-4.857.045-7.086-1.015-.925-.444-1.75-1.061-2.583-1.631-.481-.354-.481-.617-.091-1.061l2.103-2.112 1.223-1.232 2.628-2.556c.091-.091.172-.127.218-.218l2.456-2.51 2.32-2.293 1.051-1.06.48-.526 3.154-3.172 2.447-2.42 3.416-3.435c.961-1.015 1.441-2.293 1.623-3.661.217-1.631-.263-3.126-1.142-4.486-.481-.752-1.097-.843-1.749-.181l-4.468 4.359-4.767 4.631-3.507 3.344-4.205 4.187-2.139 2.066-3.027 2.954c-.562.526-1.269.834-1.966 1.06-1.006.308-2.012.263-3.018.081-1.052-.172-1.931-.707-2.719-1.45l-3.725-3.698c-.516-.535-.48-.58 0-1.06L118.06 72.6l3.153-3.127 2.628-2.555 2.447-2.51 5.302-5.247 2.8-2.728.263-.263c1.051-1.278 2.456-1.803 4.069-1.849 1.84-.091 3.335.571 4.604 1.894l7.567 7.621c1.713 1.713 2.021 2.066 2.583 2.945 1.54 2.338 1.84 4.495 1.93 5.066-.127.399.045 1.586-.127 3.127z" fill="#fff"/><circle cx="125.5" cy="72.5" r="42.082" stroke="#191326" stroke-width="2.837" style="mix-blend-mode:multiply" opacity=".2"/><defs><linearGradient id="A" x1="124.757" y1="87.774" x2="111.381" y2="138.886" gradientUnits="userSpaceOnUse"><stop stop-color="#404042"/><stop offset="1" stop-color="#48484b"/></linearGradient><linearGradient id="B" x1="65.567" y1="105.096" x2="60.735" y2="123.129" gradientUnits="userSpaceOnUse"><stop stop-color="#404042"/><stop offset="1" stop-color="#48484b"/></linearGradient><linearGradient id="C" x1="92.495" y1="80.169" x2="108.09" y2="164.62" gradientUnits="userSpaceOnUse"><stop stop-color="#404042"/><stop offset="1" stop-color="#48484b"/></linearGradient><linearGradient id="D" x1="82" y1="29" x2="169" y2="116" gradientUnits="userSpaceOnUse"><stop offset=".245" stop-color="#f16154"/><stop offset=".693" stop-color="#ed8533"/></linearGradient></defs></svg>
